X:291
T:John Ryan's Polka
M:4/4
L:1/8
K:G
g2 g2 efge | d2 B2 A2 G2 | g2 g2 efge | d2 B2 A4 | 
g2 g2 efge | d2 B2 A2 G2 | b2 g2 a2 f2 | g4 g4 :|| 
b2 g2 g2 ab | c'2 b2 a2 g2 | b2 g2 g2 ab | c'2 b2 d'4 | 
b2 g2 g2 ab | c'2 b2 a2 g2 | b2 g2 a2 f2 | g4 g4 :|| 

